!!! Mary Had A Little Lamb
**kern
*clefG2
*M4/4
*k[]
*C:
4ee
4dd
4cc
4dd
=1
4ee
4ee
2ee
=2
4dd
4dd
2dd
=3
4ee
4gg
2gg
=4 
4ee
4dd
4cc
4dd
=5
4ee
4ee
4ee
4ee
=6 
4dd
4dd
4ee
4dd
=7
2.cc
4cc
=8 
4ee
4dd
4cc
4dd
=9 
4ee
4ee
2ee
=10 
4dd
4dd
2dd
=11 
4ee
4gg
2gg
=12
4ee
4dd
4cc
4dd
=13
4ee
4ee
4ee
4ee
=14
4dd
4dd
4ee
4dd
=15
1cc
*- 
